app/images/icon/qualities/2.svg

<svg width="80" height="95" viewBox="0 0 80 95" fill="none" xmlns="http://www.w3.org/2000/svg">
<path d="M42.0944 33.0302C42.5287 32.884 43.0798 32.171 43.1082 31.7188C43.7453 20.8114 34.7387 6.27071 31.4952 1.41602C28.884 2.45683 26.3433 4.13912 23.9976 6.70286C23.9976 6.70286 19.3132 9.84645 17.6514 25.1206C26.4129 36.4674 37.2999 34.6119 42.0944 33.0302Z" fill="#FFC59E"/>
<path d="M76.8418 13.6697L62.4881 10.1662C62.4881 10.1662 62.0789 6.7031 58.0087 5.28009C55.042 4.24038 44.8198 -1.6347 34.7622 0.440355C38.5647 6.22828 47.0236 20.4951 46.3548 31.9065C46.2552 33.7008 44.8289 35.5545 43.1142 36.1212C41.4658 36.6697 38.5075 37.4289 34.9121 37.4289C29.7029 37.4289 23.1601 35.8269 17.2657 29.6677C17.1501 31.625 17.084 33.742 17.0724 36.0326C17.0064 47.8473 1.99884 59.0493 1.99884 59.0493L0 63.1918C4.07974 72.0252 10.4752 79.5753 18.4152 85.0546C18.7751 79.4119 20.1901 74.9915 21.829 71.6696C24.9328 65.3602 29.2857 61.8585 31.507 60.3768C31.9847 47.3546 36.2114 43.5487 39.7376 42.6786C40.8207 42.4102 41.9625 42.6414 42.8607 43.3157C43.883 44.0786 44.5405 45.3379 44.6072 46.6897C44.7885 50.19 46.8573 52.6472 47.8383 53.6231C49.4291 53.7712 50.9476 54.0232 52.3772 54.3697L52.5085 53.1418L53.6011 42.5323C53.7864 40.7417 55.3957 39.2323 57.1772 38.977C63.9421 37.9916 79.0145 33.9845 79.9941 17.7009C80.1068 15.9048 78.5901 14.0986 76.8418 13.6697ZM54.4789 17.4522C53.4662 17.4522 52.6438 16.6335 52.6438 15.6197C52.6438 14.6058 53.4662 13.7871 54.4789 13.7871C55.4938 13.7871 56.3122 14.6058 56.3122 15.6197C56.3085 16.6317 55.492 17.4522 54.4789 17.4522Z" fill="#FFC59E"/>
<path d="M62.4926 65.9366C61.9499 61.32 55.4334 57.516 47.0128 56.9755C47.0128 56.9755 42.5417 53.5384 42.2416 47.6053C42.1924 46.7071 41.521 45.8143 40.649 46.0295C38.3989 46.5831 34.5785 49.4718 34.3881 62.6646C34.3881 62.6646 22.15 68.8387 21.2656 86.6387C29.1104 91.3519 38.2519 94.1165 48.0095 94.2774L47.9001 91.7275C47.8596 90.8293 48.5113 89.8442 49.3519 89.5295L59.776 85.6201C59.776 85.6201 64.6646 85.8943 66.6981 82.2242C67.7276 80.3741 68.6831 79.0813 69.3869 78.2484C69.9628 77.5631 69.9537 76.5836 69.3093 75.9574C67.1795 73.9017 62.8981 69.3865 62.4926 65.9366ZM56.309 70.4051C55.2981 70.4051 54.4775 69.5885 54.4775 68.574C54.4775 67.5572 55.2981 66.7389 56.309 66.7389C57.3235 66.7389 58.1441 67.5572 58.1441 68.574C58.1444 69.5882 57.3239 70.4051 56.309 70.4051Z" fill="#FFC59E"/>
</svg>

<svg width="80" height="95" fill="none" xmlns="http://www.w3.org/2000/svg"><path d="M42.094 33.03c.435-.146.986-.859 1.014-1.311.637-10.908-8.37-25.448-11.613-30.303-2.611 1.04-5.152 2.723-7.497 5.287 0 0-4.685 3.143-6.347 18.418 8.762 11.346 19.649 9.49 24.443 7.91z" fill="#FFC59E"/><path d="M76.842 13.67l-14.354-3.504s-.41-3.463-4.48-4.886C55.043 4.24 44.82-1.635 34.763.44c3.803 5.788 12.262 20.055 11.593 31.466-.1 1.795-1.526 3.648-3.24 4.215a26.532 26.532 0 01-8.203 1.308c-5.21 0-11.752-1.602-17.646-7.761a118.335 118.335 0 00-.194 6.365C17.006 47.847 2 59.049 2 59.049l-2 4.143a54.225 54.225 0 0018.415 21.863c.36-5.643 1.775-10.064 3.414-13.385 3.104-6.31 7.457-9.812 9.678-11.293.478-13.022 4.704-16.828 8.23-17.698a3.705 3.705 0 013.124.637c1.022.763 1.68 2.022 1.746 3.374.181 3.5 2.25 5.957 3.231 6.933 1.591.148 3.11.4 4.54.747l.13-1.228 1.093-10.61c.185-1.79 1.795-3.3 3.576-3.555 6.765-.985 21.837-4.992 22.817-21.276.113-1.796-1.404-3.602-3.152-4.031zm-22.363 3.782a1.833 1.833 0 110-3.665 1.83 1.83 0 011.833 1.833 1.835 1.835 0 01-1.833 1.832z" fill="#FFC59E"/><path d="M62.493 65.937c-.543-4.617-7.06-8.421-15.48-8.962 0 0-4.471-3.437-4.771-9.37-.05-.898-.721-1.79-1.593-1.575-2.25.553-6.07 3.442-6.26 16.635 0 0-12.239 6.174-13.123 23.974a53.504 53.504 0 0026.744 7.638l-.11-2.55c-.04-.898.611-1.883 1.452-2.198l10.424-3.909s4.889.274 6.922-3.396c1.03-1.85 1.985-3.143 2.689-3.976.576-.685.567-1.664-.078-2.29-2.13-2.056-6.41-6.572-6.816-10.021zm-6.184 4.468a1.83 1.83 0 01-1.831-1.831 1.832 1.832 0 111.831 1.831z" fill="#FFC59E"/></svg>
